Hatter-kde/actions/24/prevfuzzyuntrans.svg

<svg xmlns="http://www.w3.org/2000/svg" viewBox="0 0 24 24">
  <defs id="defs3051">
    <style type="text/css" id="current-color-scheme">
      .ColorScheme-Text {
        color:#363636;
      }
      </style>
  </defs><g transform="translate(1,1)">
 <path 
     style="fill:currentColor;fill-opacity:1;stroke:none" 
     d="M 8.96875 3 C 7.21782 3 5.56187 3.4216019 4 4.2636719 L 4.7773438 6.0507812 C 5.5582637 5.6672613 6.2600456 5.3933025 6.8847656 5.2265625 C 7.5177356 5.0598325 8.1626925 4.9765625 8.8203125 4.9765625 C 9.8067525 4.9765625 10.563734 5.1968119 11.089844 5.6386719 C 11.615944 6.0805419 11.878906 6.7136725 11.878906 7.5390625 C 11.878906 7.9809325 11.822111 8.369625 11.707031 8.703125 C 11.591951 9.036605 11.394724 9.369635 11.115234 9.703125 C 10.835754 10.036615 10.247563 10.586476 9.3515625 11.353516 C 8.2514825 12.356846 7.10046 14.139 7 16 L 9 16 L 8.9941406 15.96875 C 8.9941406 15.21007 9.1256119 14.601138 9.3886719 14.142578 C 9.6599519 13.675688 10.201805 13.087576 11.015625 12.378906 C 12.010295 11.536836 12.673153 10.903726 13.001953 10.478516 C 13.338993 10.053316 13.589506 9.6041364 13.753906 9.1289062 C 13.918406 8.6536763 14 8.1071944 14 7.4902344 C 14 6.0728944 13.55227 4.97119 12.65625 4.1875 C 11.76024 3.39546 10.53061 3 8.96875 3 z M 16.292969 12 L 13 15.292969 L 12.792969 15.5 L 13 15.707031 L 16.292969 19 L 17 18.292969 L 14.707031 16 L 19 16 L 19 15 L 14.707031 15 L 17 12.707031 L 16.292969 12 z M 7 17 L 7 19 L 9 19 L 9 17 L 7 17 z "
	 class="ColorScheme-Text"
     />
</g></svg>

<?xml version="1.0" encoding="UTF-8"?>
<svg viewBox="0 0 24 24" xmlns="http://www.w3.org/2000/svg">
 <defs id="defs3051">
  <style id="current-color-scheme" type="text/css">.ColorScheme-Text {
        color:#363636;
      }</style>
 </defs>
 <g transform="translate(1,1)">
  <path class="ColorScheme-Text" d="m8.9688 3c-1.7509 0-3.4069 0.4216-4.9688 1.2637l0.77734 1.7871c0.78092-0.38352 1.4827-0.65748 2.1074-0.82422 0.63297-0.16673 1.2779-0.25 1.9355-0.25 0.98644 0 1.7434 0.22025 2.2695 0.66211 0.5261 0.44187 0.78906 1.075 0.78906 1.9004 0 0.44187-0.056795 0.83056-0.17188 1.1641-0.11508 0.33348-0.31231 0.66651-0.5918 1-0.27948 0.33349-0.86767 0.88335-1.7637 1.6504-1.1001 1.0033-2.2511 2.7855-2.3516 4.6465h2l-0.0058594-0.03125c0-0.75868 0.13147-1.3676 0.39453-1.8262 0.27128-0.46689 0.81313-1.055 1.627-1.7637 0.99467-0.84207 1.6575-1.4752 1.9863-1.9004 0.33704-0.4252 0.58755-0.87438 0.75195-1.3496 0.1645-0.47523 0.24609-1.0217 0.24609-1.6387 0-1.4173-0.44773-2.519-1.3438-3.3027-0.89601-0.79204-2.1256-1.1875-3.6875-1.1875zm7.3242 9-3.5 3.5 3.5 3.5 0.70703-0.70703-2.293-2.293h4.293v-1h-4.293l2.293-2.293-0.70703-0.70703zm-9.293 5v2h2v-2h-2z" fill="currentColor"/>
 </g>
</svg>
